storage/app/icons/phosphoricons/bold/file-minus-bold.svg

<svg xmlns="http://www.w3.org/2000/svg" fill="currentColor" viewBox="0 0 256 256"><path d="m216.49 79.51-56-56A12 12 0 0 0 152 20H56a20 20 0 0 0-20 20v176a20 20 0 0 0 20 20h144a20 20 0 0 0 20-20V88a12 12 0 0 0-3.51-8.49M160 57l23 23h-23ZM60 212V44h76v48a12 12 0 0 0 12 12h48v108Zm104-60a12 12 0 0 1-12 12h-48a12 12 0 0 1 0-24h48a12 12 0 0 1 12 12"/></svg>

<svg xmlns="http://www.w3.org/2000/svg" viewBox="0 0 256 256" fill="currentColor"><path d="M216.49,79.51l-56-56A12,12,0,0,0,152,20H56A20,20,0,0,0,36,40V216a20,20,0,0,0,20,20H200a20,20,0,0,0,20-20V88A12,12,0,0,0,216.49,79.51ZM160,57l23,23H160ZM60,212V44h76V92a12,12,0,0,0,12,12h48V212Zm104-60a12,12,0,0,1-12,12H104a12,12,0,0,1,0-24h48A12,12,0,0,1,164,152Z"/></svg>
